X: 10583
M: C|
L: 1/8
K: F
|: e |\
fgaf gfde | fgfd cAGF | G2g2 gfga | bgaf efge |\
fgaf gfde | fgfd cAGA | FAGA FAGA | dcAG AFF :|


